src/components/preview/logo.svg

<svg viewBox="0 0 574.02002 574.02002" xmlns="http://www.w3.org/2000/svg"><circle cx="287.01001" cy="287.01001" fill="none" r="287.01001"/><path d="m349 379.29c0-8.79-6.84-11.23-15.15-11.23h-12.07v22.47h12.09c8.31 0 15.13-2.94 15.13-11.24zm77.2 7.27h44.44v34.44c-6.25 11.65-20.4 20.72-41.63 20.72-12.49 0-22.48-3.33-27.88-7.48-20.06 12.18-55.06 9.65-67.45-24.13h-11.9v10h8.22v20h-45.8v-20h11.4v-52h-16.4v34.53c0 25.78-18.32 39.93-42.05 39.93-20.81 0-42-12.48-42-39.93v-34.58h-8.74v-20.38h46.59v20.38h-10v35.78c0 10.39 7.92 16.22 15.4 16.22s14.57-5.41 14.57-16.22v-35.78h-12.11v-20.38h98.25c24.63 0 37.05 13.43 37.05 30.52a31.58 31.58 0 0 1 -16.81 27.38c4.72 13.84 19.07 16.56 26 9.91-3.33-6.66-4.59-14.15-4.59-21.64 0-24.68 15.35-47.83 47-47.83 18.31 0 29.34 5.21 38.14 12.55v21.58h-23.31l-.1-9.63c-3.59-2.22-7.78-3.25-13.05-3.25-13.8 0-22.07 9.81-22.07 26.17 0 15 8.75 26.13 22.07 26.54 7.08 0 12.53-1.51 17.9-6.15v-7.71h-21.13v-19.56zm-263.2 24.76a9.33 9.33 0 0 0 -9.50494-9.15171l-.07506.00171h-12.48v17.89h12.06c6.26 0 10-4.58 10-8.74zm-22.07-27.46h7.07c5.83 0 8.75-3.74 8.75-7.9s-2.92-7.9-8.75-7.9h-7.08zm48.29 28.71c0 13.72-10 27.45-29.52 27.45h-55.4v-20h9.57v-52h-9.57v-20.34h48.9c18.86 0 28.11 12.06 28.11 25 0 5.82-2.08 11.64-7.08 17.05 10.84 4.95 15 13.69 15 22.84zm234.4-153.08h11.21v33.23l-37.09-52.79h-39.58v19.55h10.84v52h-10.84v20.38h47.84v-20.38h-10.76v-32l36.26 52.36h29.56v-72.35h10v-19.55h-47.44zm-40.68-128.13v30.17h19.6v-10.05h11.12v51.87h-9.53v20.11h46.61v-20.11h-10.06v-51.87h11.12v10.05h20.13v-30.17zm-196 170h-20.65v10.59h-25.43v-16.44h23.84v-20.11h-23.84v-15.35h25.43v10.59h20.71v-30.71h-82.69v20.12h10.06v51.87h-10.06v20.08h82.69zm45.53-19.36h12.41c8.31 0 15.12-3 15.12-11.28 0-8.8-6.84-11.24-15.15-11.24h-12.38zm7.91 49.92h-45.79v-20.43h10.83v-52h-10.83v-19.56h56.32c24.64 0 37.06 13.44 37.06 30.53a31.6 31.6 0 0 1 -16.66 27.3c1.66 10 10.34 13.73 21.09 13.73h17.2v-52h-14.6v-19.56h55.37v19.56h-14.55v52h14.57v20.38h-59.14c-26.81 0-39.52-10.4-45.75-30h-13v9.57h7.91v20.39zm92.7-155.52h16.42l-8.5-22.28zm-92.94 47.11h-45.55v-20.16h11.12v-51.87h-11.12v-20.12h46.61v20.12h-9v15.88h9.54c12.18 0 19.6-5.83 19.6-15.88h-7.95v-20.12h44v20.12h-11.16c0 13.76-9.54 25.4-19.07 30.7 2.64 14.29 10.84 21.17 28.84 20.12l20.13-50.82h-6.89v-20.12h51.91l27.55 72h9.53v20.11h-46.62v-20.12h7.39l-2.12-6.88h-30.7l-2.12 6.88h8.47v20.11h-18.3c-31.78 0-35.94 0-47.6-4.76-11.12-4.76-19.6-16.41-23.84-31.23h-10.59v15.88h7.94zm-53.19 0h-82.64v-20.16h10.06v-51.87h-10.06v-20.12h82.69v30.71h-20.71v-10.59h-25.43v15.35h23.84v20.11h-23.84v16.41h25.43v-10.58h20.71z" fill="#fff"/><circle cx="287.01001" cy="287.01001" fill="none" r="287.01001"/></svg>

<svg id="Layer_1" data-name="Layer 1" xmlns="http://www.w3.org/2000/svg" viewBox="0 0 574.02002 574.02002"><defs><style>.cls-1{fill:none;}.cls-2{fill:#fff;}</style></defs><circle class="cls-1" cx="287.01001" cy="287.01001" r="287.01001"/><path class="cls-2" d="M349,379.29c0-8.79-6.84-11.23-15.15-11.23H321.78v22.47h12.09C342.18,390.53,349,387.59,349,379.29Zm77.2,7.27h44.44V421c-6.25,11.65-20.4,20.72-41.63,20.72-12.49,0-22.48-3.33-27.88-7.48-20.06,12.18-55.06,9.65-67.45-24.13h-11.9v10H330v20H284.2v-20h11.4v-52H279.2v34.53c0,25.78-18.32,39.93-42.05,39.93-20.81,0-42-12.48-42-39.93V368.06h-8.74V347.68H233v20.38H223v35.78c0,10.39,7.92,16.22,15.4,16.22s14.57-5.41,14.57-16.22V368.06H240.86V347.68h98.25c24.63,0,37.05,13.43,37.05,30.52a31.58,31.58,0,0,1-16.81,27.38c4.72,13.84,19.07,16.56,26,9.91-3.33-6.66-4.59-14.15-4.59-21.64,0-24.68,15.35-47.83,47-47.83,18.31,0,29.34,5.21,38.14,12.55v21.58H442.59l-.1-9.63c-3.59-2.22-7.78-3.25-13.05-3.25-13.8,0-22.07,9.81-22.07,26.17,0,15,8.75,26.13,22.07,26.54,7.08,0,12.53-1.51,17.9-6.15v-7.71H426.21V386.56ZM163,411.32a9.33,9.33,0,0,0-9.50494-9.15171L153.42,402.17H140.94v17.89H153C159.26,420.06,163,415.48,163,411.32Zm-22.07-27.46H148c5.83,0,8.75-3.74,8.75-7.9s-2.92-7.9-8.75-7.9h-7.08Zm48.29,28.71c0,13.72-10,27.45-29.52,27.45H104.3v-20h9.57v-52H104.3V347.68h48.9c18.86,0,28.11,12.06,28.11,25,0,5.82-2.08,11.64-7.08,17.05,10.84,4.95,15,13.69,15,22.84Zm234.4-153.08h11.21v33.23l-37.09-52.79H358.16v19.55H369v52H358.16v20.38H406V311.48H395.24v-32l36.26,52.36h29.56V259.49h10V239.94H423.62ZM382.94,131.36v30.17h19.6V151.48h11.12v51.87h-9.53v20.11h46.61V203.35H440.68V151.48H451.8v10.05h20.13V131.36Zm-196,170H166.29v10.59H140.86V295.51H164.7V275.4H140.86V260.05h25.43v10.59H187V239.93H104.31v20.12h10.06v51.87H104.31V332H187ZM232.47,282h12.41c8.31,0,15.12-3,15.12-11.28,0-8.8-6.84-11.24-15.15-11.24H232.47Zm7.91,49.92H194.59V311.49h10.83v-52H194.59V239.93h56.32c24.64,0,37.06,13.44,37.06,30.53a31.6,31.6,0,0,1-16.66,27.3c1.66,10,10.34,13.73,21.09,13.73h17.2v-52H295V239.93h55.37v19.56H335.82v52h14.57v20.38H291.25c-26.81,0-39.52-10.4-45.75-30h-13v9.57h7.91v20.39Zm92.7-155.52H349.5L341,154.12Zm-92.94,47.11H194.59V203.35h11.12V151.48H194.59V131.36H241.2v20.12h-9v15.88h9.54c12.18,0,19.6-5.83,19.6-15.88h-7.95V131.36h44v20.12H286.23c0,13.76-9.54,25.4-19.07,30.7C269.8,196.47,278,203.35,296,202.3l20.13-50.82h-6.89V131.36h51.91l27.55,72h9.53v20.11H351.61V203.35H359l-2.12-6.88h-30.7l-2.12,6.88h8.47v20.11h-18.3c-31.78,0-35.94,0-47.6-4.76-11.12-4.76-19.6-16.41-23.84-31.23H232.2v15.88h7.94Zm-53.19,0H104.31V203.35h10.06V151.48H104.31V131.36H187v30.71H166.29V151.48H140.86v15.35H164.7v20.11H140.86v16.41h25.43V192.77H187Z"/><circle class="cls-1" cx="287.01001" cy="287.01001" r="287.01001"/></svg>
